X:83
T:RVW2/2/83 The Farmer's Daughter
C:John Denny, Billericay, Essex, 25 April 1904
L:1/8
Q:1/4=100
M:6/8
I:linebreak $
K:G
"^(Editorial suggestion  " G | GFG"^(a)" AGA | FD z z z G | GGG AGA | B3- B2 A |$ GBd ecA | 
BG z z z A | FEF DEF | G3- G2 ||$ G | GFG"^(a) var. **" AFE | FD z z z G | GGG AGA | B3- B2 A |$ 
GBd ecA | BG z z z A | FEF DEF | G3- G2 |] 



